icons/svg/poi_colored/tree.svg

<?xml version="1.0" encoding="UTF-8" standalone="no"?>
<!-- Created with Inkscape (http://www.inkscape.org/) -->

<svg
   xmlns:dc="http://purl.org/dc/elements/1.1/"
   xmlns:cc="http://creativecommons.org/ns#"
   xmlns:rdf="http://www.w3.org/1999/02/22-rdf-syntax-ns#"
   xmlns:svg="http://www.w3.org/2000/svg"
   xmlns="http://www.w3.org/2000/svg"
   xmlns:sodipodi="http://sodipodi.sourceforge.net/DTD/sodipodi-0.dtd"
   xmlns:inkscape="http://www.inkscape.org/namespaces/inkscape"
   version="1.0"
   width="580"
   height="580"
   id="svg2"
   sodipodi:version="0.32"
   inkscape:version="0.91 r"
   sodipodi:docname="tree.svg"
   inkscape:output_extension="org.inkscape.output.svg.inkscape">
  <metadata
     id="metadata2975">
    <rdf:RDF>
      <cc:Work
         rdf:about="">
        <dc:format>image/svg+xml</dc:format>
        <dc:type
           rdf:resource="http://purl.org/dc/dcmitype/StillImage" />
        <cc:license
           rdf:resource="http://web.resource.org/cc/PublicDomain" />
        <dc:language>en</dc:language>
        <dc:title></dc:title>
      </cc:Work>
    </rdf:RDF>
  </metadata>
  <sodipodi:namedview
     inkscape:window-height="995"
     inkscape:window-width="1280"
     inkscape:pageshadow="2"
     inkscape:pageopacity="0.0"
     guidetolerance="10.0"
     gridtolerance="10.0"
     objecttolerance="10.0"
     borderopacity="1.0"
     bordercolor="#666666"
     pagecolor="#ffffff"
     id="base"
     inkscape:zoom="0.25"
     inkscape:cx="-124.96495"
     inkscape:cy="177.20671"
     inkscape:window-x="0"
     inkscape:window-y="0"
     inkscape:current-layer="svg2"
     showgrid="false"
     inkscape:window-maximized="1" />
  <defs
     id="defs4">
    <inkscape:perspective
       sodipodi:type="inkscape:persp3d"
       inkscape:vp_x="0 : 290 : 1"
       inkscape:vp_y="0 : 1000 : 0"
       inkscape:vp_z="580 : 290 : 1"
       inkscape:persp3d-origin="290 : 193.33333 : 1"
       id="perspective2441" />
    <inkscape:perspective
       id="perspective3452"
       inkscape:persp3d-origin="30 : 20 : 1"
       inkscape:vp_z="60 : 30 : 1"
       inkscape:vp_y="0 : 1000 : 0"
       inkscape:vp_x="0 : 30 : 1"
       sodipodi:type="inkscape:persp3d" />
    <symbol
       viewBox="244.5 110 489 219.9"
       id="symbol-university">
      <path
         id="path4460"
         d="M79,43l57,119c0,0,21-96,104-96s124,106,124,106l43-133l82-17L0,17L79,43z" />
      <path
         id="path4462"
         d="M94,176l-21,39"
         stroke-width="20"
         stroke="#000000"
         fill="none" />
      <path
         id="path4464"
         d="M300,19c0,10.5-22.6,19-50.5,19S199,29.5,199,19s22.6-19,50.5-19S300,8.5,300,19z" />
      <path
         id="path4466"
         d="M112,216l-16-38L64,88c0,0-9-8-4-35s16-24,16-24"
         stroke-width="20"
         stroke="#000000"
         ill="none" />
    </symbol>
    <inkscape:perspective
       id="perspective4471"
       inkscape:persp3d-origin="372.04724 : 350.78739 : 1"
       inkscape:vp_z="744.09448 : 526.18109 : 1"
       inkscape:vp_y="0 : 1000 : 0"
       inkscape:vp_x="0 : 526.18109 : 1"
       sodipodi:type="inkscape:persp3d" />
    <inkscape:perspective
       id="perspective4668"
       inkscape:persp3d-origin="6 : 4 : 1"
       inkscape:vp_z="12 : 6 : 1"
       inkscape:vp_y="0 : 1000 : 0"
       inkscape:vp_x="0 : 6 : 1"
       sodipodi:type="inkscape:persp3d" />
  </defs>
  <g
     id="g1327">
    <path
       d="M 66.275,1.768 C 24.94,1.768 1.704,23.139 1.704,66.804 L 1.704,516.927 C 1.704,557.771 22.599,579.156 63.896,579.156 L 515.92,579.156 C 557.227,579.156 578.149,558.841 578.149,516.927 L 578.149,66.804 C 578.149,24.203 557.227,1.768 514.628,1.768 C 514.624,1.768 66.133,1.625 66.275,1.768 z "
       style="fill:#111;stroke:#eee;stroke-width:3.40799999"
       id="path1329" />
  </g>
  <path
     style="color:#000000;display:inline;overflow:visible;visibility:visible;fill:#ffffff;fill-opacity:1;fill-rule:nonzero;stroke:none;stroke-width:65.80000305;stroke-linecap:butt;stroke-linejoin:round;stroke-miterlimit:4;stroke-dasharray:none;stroke-opacity:0.68181817;marker:none;enable-background:accumulate"
     d="m 301.76982,250.48165 c 0,0 0,138.31424 65.57485,138.31424 21.85822,0 33.62809,-17.78326 33.62809,-17.78326 6.72563,15.80734 20.17689,25.68694 35.30946,25.68694 21.8583,0 38.67245,-19.75919 38.67245,-43.4702 0,-15.80735 -6.72573,-29.63876 -16.81415,-37.54244 6.72561,0 33.62818,-13.83142 33.62818,-47.42202 l 0,0 0,0 c 0,-21.73509 -15.13269,-45.44609 -35.30953,-47.42203 -3.36281,-21.73508 -18.4955,-37.54243 -38.67234,-37.54243 l -1.68145,0 c 5.04426,-7.90366 10.08854,-17.78325 10.08854,-27.66282 0,-23.71104 -16.81414,-43.47021 -38.67245,-43.47021 -10.08835,0 -20.17681,3.95184 -26.90245,11.85551 -5.04421,-19.75917 -20.17689,-33.590606 -36.99094,-33.590606 l -5.04421,0 C 313.53964,68.697236 295.04419,52.88988 274.86731,52.88988 c -15.13263,0 -28.58389,7.903691 -36.99092,21.735105 -3.36281,-1.975929 -8.40699,-1.975929 -11.76984,-1.975929 -21.85827,0 -40.35373,19.759192 -40.35373,43.470204 l 0,3.95182 c -6.72563,-5.92775 -15.13267,-11.85549 -25.22109,-11.85549 -20.17686,0 -38.67233,19.75918 -38.67233,45.4461 0,3.95184 0,7.90366 1.68141,11.85551 -20.17687,1.9759 -35.309509,19.75918 -35.309509,43.47017 0,23.71102 16.814069,43.47021 38.672329,43.47021 3.36281,0 6.72563,0 8.40702,-1.97593 -8.40702,9.8796 -13.45125,23.71101 -13.45125,39.51836 l 0,1.97591 c -18.49546,3.95184 -33.628099,21.73509 -33.628099,43.47019 0,23.71102 16.814069,43.47018 38.672329,43.47018 3.36281,0 6.72563,0 10.08844,-1.97591 1.6814,21.73509 18.49546,37.54242 38.67233,37.54242 13.45122,0 26.90249,-7.90366 33.62808,-21.7351 42.99719,3.54638 78.64433,-48.74954 88.73617,-57.51639 -1.95016,-24.24013 -0.0192,-45.86311 3.74116,-84.74966 z"
     id="path3770"
     inkscape:connector-curvature="0"
     sodipodi:nodetypes="cscsscccccscsscscscsscsscsscscsscsccc" />
  <path
     style="color:#000000;display:inline;overflow:visible;visibility:visible;fill:#ffffff;fill-opacity:1;fill-rule:nonzero;stroke:none;stroke-width:65.80000305;stroke-linecap:butt;stroke-linejoin:round;stroke-miterlimit:4;stroke-dasharray:none;stroke-opacity:0.68181817;marker:none;enable-background:accumulate"
     d="m 266.31745,380.77098 c -0.40617,15.17565 -1.53855,31.68205 -1.53855,49.51919 -3.3628,86.94035 -45.39794,49.39792 -58.8492,96.81995 l 184.95461,0 c -8.40696,-21.73511 -42.03512,-7.90366 -50.44216,-57.30162 -3.3628,-21.73508 -6.72561,-55.3257 -6.72561,-63.22936 -16.72831,-17.47412 -27.29253,-36.75917 -31.97663,-65.19543"
     id="path3"
     inkscape:connector-curvature="0" />
</svg>

<svg width="580" height="580" viewBox="0 0 580 580" fill="none" xmlns="http://www.w3.org/2000/svg">
<g clip-path="url(#clip0)">
<path d="M66.2751 1.76815C24.9401 1.76815 1.7041 23.1391 1.7041 66.8041V516.927C1.7041 557.771 22.5991 579.156 63.8961 579.156H515.92C557.227 579.156 578.149 558.841 578.149 516.927V66.8041C578.149 24.2031 557.227 1.76815 514.628 1.76815C514.624 1.76815 66.1331 1.62515 66.2751 1.76815Z" fill="#111111" stroke="#EEEEEE" stroke-width="3.408"/>
<path d="M301.77 250.481C301.77 250.481 301.77 388.796 367.345 388.796C389.203 388.796 400.973 371.012 400.973 371.012C407.698 386.82 421.15 396.699 436.282 396.699C458.14 396.699 474.955 376.94 474.955 353.229C474.955 337.422 468.229 323.59 458.14 315.687C464.866 315.687 491.769 301.855 491.769 268.265C491.769 246.53 476.636 222.819 456.459 220.843C453.096 199.108 437.964 183.3 417.787 183.3H416.105C421.15 175.397 426.194 165.517 426.194 155.637C426.194 131.926 409.38 112.167 387.521 112.167C377.433 112.167 367.345 116.119 360.619 124.023C355.575 104.264 340.442 90.4321 323.628 90.4321H318.584C313.54 68.697 295.044 52.8896 274.867 52.8896C259.735 52.8896 246.283 60.7933 237.876 74.6248C234.513 72.6488 229.469 72.6488 226.106 72.6488C204.248 72.6488 185.753 92.408 185.753 116.119V120.071C179.027 114.143 170.62 108.215 160.532 108.215C140.355 108.215 121.859 127.975 121.859 153.661C121.859 157.613 121.859 161.565 123.541 165.517C103.364 167.493 88.2312 185.276 88.2312 208.987C88.2312 232.698 105.045 252.457 126.904 252.457C130.266 252.457 133.629 252.457 135.311 250.481C126.904 260.361 121.859 274.192 121.859 290V291.976C103.364 295.928 88.2312 313.711 88.2312 335.446C88.2312 359.157 105.045 378.916 126.904 378.916C130.266 378.916 133.629 378.916 136.992 376.94C138.673 398.675 155.487 414.483 175.664 414.483C189.116 414.483 202.567 406.579 209.292 392.747C252.29 396.294 287.937 343.998 298.029 335.231C296.078 310.991 298.009 289.368 301.77 250.481V250.481Z" fill="white"/>
<path d="M266.317 380.771C265.911 395.947 264.779 412.453 264.779 430.29C261.416 517.231 219.381 479.688 205.93 527.11H390.884C382.477 505.375 348.849 519.207 340.442 469.809C337.079 448.074 333.717 414.483 333.717 406.579C316.988 389.105 306.424 369.82 301.74 341.384" fill="white"/>
</g>
<defs>
<clipPath id="clip0">
<path d="M0 0H580V580H0V0Z" fill="white"/>
</clipPath>
</defs>
</svg>
